src/resources/flags/at.svg

<svg height="336" viewBox="0 0 512 336" width="512" xmlns="http://www.w3.org/2000/svg"><g fill="none"><path d="m512.001 112.092h-512.001v-102.989a8.829 8.829 0 0 1 8.828-8.828h494.345a8.829 8.829 0 0 1 8.828 8.828zm-8.829 223.632h-494.344a8.829 8.829 0 0 1 -8.828-8.828v-102.988h512v102.988a8.828 8.828 0 0 1 -8.828 8.828z" fill="#ff4b55"/><path d="m0 112.088h512v111.812h-512z" fill="#f5f5f5"/></g></svg>

<svg width="512" height="336" viewBox="0 0 512 336" xmlns="http://www.w3.org/2000/svg">
  <g fill="none">
    <path d="M512.001 112.092H0V9.103A8.829 8.829 0 0 1 8.828.275h494.345a8.829 8.829 0 0 1 8.828 8.828v102.989zm-8.829 223.632H8.828A8.829 8.829 0 0 1 0 326.896V223.908h512v102.988a8.828 8.828 0 0 1-8.828 8.828z" fill="#FF4B55"/>
    <path fill="#F5F5F5" d="M0 112.088h512V223.9H0z"/>
  </g>
</svg>
